outline/svg/people-outline.svg

<svg xmlns="http://www.w3.org/2000/svg" viewBox="0 0 24 24"><g data-name="Layer 2"><g data-name="people"><path d="M9 11a4 4 0 1 0-4-4 4 4 0 0 0 4 4zm0-6a2 2 0 1 1-2 2 2 2 0 0 1 2-2z"/><path d="M17 13a3 3 0 1 0-3-3 3 3 0 0 0 3 3zm0-4a1 1 0 1 1-1 1 1 1 0 0 1 1-1z"/><path d="M17 14a5 5 0 0 0-3.06 1.05A7 7 0 0 0 2 20a1 1 0 0 0 2 0 5 5 0 0 1 10 0 1 1 0 0 0 2 0 6.9 6.9 0 0 0-.86-3.35A3 3 0 0 1 20 19a1 1 0 0 0 2 0 5 5 0 0 0-5-5z"/></g></g></svg>

<svg xmlns="http://www.w3.org/2000/svg" viewBox="0 0 24 24"><defs><style>.cls-1{fill:#fff;opacity:0;}.cls-2{fill:#231f20;}</style></defs><title>people</title><g id="Layer_2" data-name="Layer 2"><g id="people"><g id="people-2" data-name="people"><rect class="cls-1" width="24" height="24"/><path class="cls-2" d="M9,11A4,4,0,1,0,5,7,4,4,0,0,0,9,11ZM9,5A2,2,0,1,1,7,7,2,2,0,0,1,9,5Z"/><path class="cls-2" d="M17,13a3,3,0,1,0-3-3A3,3,0,0,0,17,13Zm0-4a1,1,0,1,1-1,1A1,1,0,0,1,17,9Z"/><path class="cls-2" d="M17,14a5,5,0,0,0-3.06,1.05A7,7,0,0,0,2,20a1,1,0,0,0,2,0,5,5,0,0,1,10,0,1,1,0,0,0,2,0,6.9,6.9,0,0,0-.86-3.35A3,3,0,0,1,20,19a1,1,0,0,0,2,0A5,5,0,0,0,17,14Z"/></g></g></g></svg>
